X:1
T:Warnborough, 77.77
T:Warnborough, 77.77
T:Frederick Iliffe, 1889
T:Public Domain Courtesy of the Cyber Hymnal™
C:Frederick Iliffe, 1889
Z:Public Domain
Z:Courtesy of the Cyber Hymnal™
%%score ( 1 2 ) ( 3 4 )
L:1/8
Q:1/4=114
M:4/4
K:G
V:1 treble 
V:2 treble 
V:3 bass 
V:4 bass 
V:1
 [DB]2 [DG]2 E3 [B,E] | [A,F]2 [DA]2 D4 | [DA]2 [Dc]2 B2 (A[EG]) | [DF]2 [^CE]2 D4 | %4
 [DG]2 [DA]2 [DB]2 [Gd]2 | [Gc]2 [Fc]2 [DB]4 | [DA]2 [DF]2 [DG]2 [DB]2 | [EB]2 [CA]2 [B,G]4 |] %8
V:2
 x4 D2 C x | x4 D4 | x4 D3 x | x4 D4 | x8 | x8 | x8 | x8 |] %8
V:3
 G,2 [B,,G,]2 G,2 A,[C,G,] | [D,F,]2 [F,C]2 C2 B,2 | [F,A,]2 [D,F,]2 G,2 ([F,A,][G,B,]) | %3
 A,2 [A,,G,]2 [D,F,]4 | [B,,G,]2 [A,,F,]2 [G,,G,]2 [=F,B,]2 | [E,C]2 [D,A,]2 [G,B,]4 | %6
 [D,F,]2 A,2 [B,,G,]2 [G,,G,]2 | [C,G,]2 [D,F,]2 [G,,G,]4 |] %8
V:4
 G,2 C,3 x3 | x4 G,4 | x4 G,2 x2 | A,2 x6 | x8 | x8 | x2 (D,C,) x4 | x8 |] %8

